icons/weather/Partially Sunny.svg

<?xml version="1.0" encoding="UTF-8" standalone="no"?>
<svg width="116px" height="115px" viewBox="0 0 116 115" version="1.1" xmlns="http://www.w3.org/2000/svg" xmlns:xlink="http://www.w3.org/1999/xlink">
    <!-- Generator: Sketch 3.7.2 (28276) - http://www.bohemiancoding.com/sketch -->
    <title>Partially Sunny</title>
    <desc>Created with Sketch.</desc>
    <defs>
        <linearGradient x1="17.3771191%" y1="15.7744867%" x2="50%" y2="50%" id="linearGradient-1">
            <stop stop-color="#FFEC69" offset="0%"></stop>
            <stop stop-color="#FBDA55" offset="100%"></stop>
            <stop stop-color="#F8D750" offset="100%"></stop>
            <stop stop-color="#E3BF36" offset="100%"></stop>
        </linearGradient>
        <linearGradient x1="29.6378627%" y1="12.6990951%" x2="91.8077791%" y2="80.9576067%" id="linearGradient-2">
            <stop stop-color="#E9E9E9" offset="0%"></stop>
            <stop stop-color="#CDCDCD" offset="100%"></stop>
        </linearGradient>
        <path d="M36.1992522,49.8011853 L75.0735544,49.8011853 C75.0758921,49.8011862 75.07823,49.8011867 75.080568,49.8011867 C75.082906,49.8011867 75.0852439,49.8011862 75.0875816,49.8011853 L75.4137572,49.8011853 C75.4726037,49.8011853 75.5314335,49.7987265 75.5901195,49.7939091 C84.1980568,49.5476955 91.0935773,43.0851905 91.0935773,35.1490193 C91.0935773,27.0568508 83.9243089,20.496852 75.080568,20.496852 C74.3036866,20.496852 73.5397267,20.5474742 72.7924132,20.6453104 C72.792801,20.5958677 72.7929953,20.5463814 72.7929953,20.496852 C72.7929953,9.7072939 63.5753644,0.960628877 52.2048405,0.960628877 C42.4540961,0.960628877 34.2865564,7.39279248 32.1574287,16.0295467 C23.9913487,17.7457362 17.8912491,24.5609469 17.8912491,32.7069914 C17.8912491,41.7629516 25.4302254,49.1741642 34.9655988,49.7634204 C35.1028286,49.7881906 35.2407423,49.8011853 35.3776476,49.8011853 L36.1844102,49.8011853 C36.1868837,49.8011862 36.1893574,49.8011867 36.1918312,49.8011867 C36.1943049,49.8011867 36.1967786,49.8011862 36.1992522,49.8011853 Z" id="path-3"></path>
        <mask id="mask-4" maskContentUnits="userSpaceOnUse" maskUnits="objectBoundingBox" x="0" y="0" width="73.2023282" height="48.8405578" fill="white">
            <use xlink:href="#path-3"></use>
        </mask>
        <linearGradient x1="26.0176616%" y1="33.0985151%" x2="89.17454%" y2="83.1318183%" id="linearGradient-5">
            <stop stop-color="#F2F2F2" offset="0%"></stop>
            <stop stop-color="#E0E0E0" offset="100%"></stop>
        </linearGradient>
        <path d="M13.6191461,50.0351669 L41.9477575,50.0351669 C41.9744893,50.0351669 42.0012216,50.0346526 42.0279421,50.0336335 C42.09475,50.0346551 42.1616931,50.0351679 42.2287671,50.0351679 C48.736162,50.0351679 54.0114478,45.2081945 54.0114478,39.253821 C54.0114478,33.2994475 48.736162,28.4724741 42.2287671,28.4724741 C41.6571228,28.4724741 41.0949864,28.5097229 40.5450988,28.5817126 C40.5453841,28.5453318 40.5455271,28.5089188 40.5455271,28.4724741 C40.5455271,20.5333094 33.7630167,14.0973449 25.3963662,14.0973449 C18.2215807,14.0973449 12.2117477,18.8302547 10.6450945,25.1853448 C4.63633562,26.4481501 0.14776486,31.4629134 0.14776486,37.4569298 C0.14776486,44.3669144 6.11298358,49.9754916 13.4956632,50.0346949 C13.5107099,50.035009 13.5257464,50.0351669 13.5407703,50.0351669 L13.6082251,50.0351669 C13.6100452,50.0351676 13.6118653,50.0351679 13.6136856,50.0351679 C13.6155058,50.0351679 13.617326,50.0351676 13.6191461,50.0351669 Z" id="path-6"></path>
        <mask id="mask-7" maskContentUnits="userSpaceOnUse" maskUnits="objectBoundingBox" x="0" y="0" width="53.8636829" height="35.9378231" fill="white">
            <use xlink:href="#path-6"></use>
        </mask>
    </defs>
    <g id="Symbols-(original)" stroke="none" stroke-width="1" fill="none" fill-rule="evenodd">
        <g id="Partially-Sunny" transform="translate(-6.000000, -7.000000)">
            <g>
                <rect id="Container-Copy-2" x="0" y="0" width="128" height="128"></rect>
                <g id="Inner-sun" transform="translate(6.000000, 7.000000)">
                    <rect id="Rectangle-23-Copy" fill="#CC9E1B" x="16.5472875" y="17.06305" width="81.2837251" height="81.2837251"></rect>
                    <polygon id="Rectangle-23-Copy-2" fill="#F6A623" points="5.61512393e-13 57.4762732 57.4762732 5.61512393e-13 114.952546 57.4762732 57.4762732 114.952546"></polygon>
                    <path d="M58.5,103 C83.6289561,103 104,82.6289561 104,57.5 C104,32.3710439 83.6289561,12 58.5,12 C33.3710439,12 13,32.3710439 13,57.5 C13,82.6289561 33.3710439,103 58.5,103 Z" id="Oval-45" fill="url(#linearGradient-1)"></path>
                    <path d="M58.5,103 C83.6289561,103 104,82.6289561 104,57.5 C104,32.3710439 83.6289561,12 58.5,12 C33.3710439,12 13,32.3710439 13,57.5 C13,82.6289561 33.3710439,103 58.5,103 Z" id="Oval-45" fill="#FBDF6B"></path>
                </g>
                <g id="Clouds" transform="translate(30.000000, 47.000000)" stroke="#979797" stroke-opacity="0.32" stroke-width="0.4">
                    <use id="Small-grey-cloud-Copy-3" mask="url(#mask-4)" fill="url(#linearGradient-2)" xlink:href="#path-3"></use>
                    <use id="Small-grey-cloud-Copy-4" mask="url(#mask-7)" fill="url(#linearGradient-5)" xlink:href="#path-6"></use>
                </g>
            </g>
        </g>
    </g>
</svg>

<svg width="116" height="115" viewBox="0 0 116 115" xmlns="http://www.w3.org/2000/svg" xmlns:xlink="http://www.w3.org/1999/xlink"><title>Partially Sunny</title><defs><linearGradient x1="17.377%" y1="15.774%" x2="50%" y2="50%" id="c"><stop stop-color="#FFEC69" offset="0%"/><stop stop-color="#FBDA55" offset="100%"/><stop stop-color="#F8D750" offset="100%"/><stop stop-color="#E3BF36" offset="100%"/></linearGradient><linearGradient x1="29.638%" y1="12.699%" x2="91.808%" y2="80.958%" id="e"><stop stop-color="#E9E9E9" offset="0%"/><stop stop-color="#CDCDCD" offset="100%"/></linearGradient><path d="M36.2 49.801h38.874a18.218 18.218 0 0 0 .014 0h.326c.059 0 .117-.002.176-.007 8.608-.246 15.504-6.709 15.504-14.645 0-8.092-7.17-14.652-16.013-14.652-.777 0-1.541.05-2.289.148l.001-.148C72.793 9.707 63.575.96 52.205.96c-9.75 0-17.918 6.432-20.048 15.069-8.166 1.716-14.266 8.53-14.266 16.677 0 9.056 7.54 16.467 17.075 17.056.137.025.275.038.412.038h.806a20.395 20.395 0 0 0 .015 0z" id="a"/><mask id="d" x="0" y="0" width="73.202" height="48.841" fill="#fff"><use xlink:href="#a"/></mask><linearGradient x1="26.018%" y1="33.099%" x2="89.175%" y2="83.132%" id="g"><stop stop-color="#F2F2F2" offset="0%"/><stop stop-color="#E0E0E0" offset="100%"/></linearGradient><path d="M13.62 50.035h28.328l.08-.001.2.001c6.508 0 11.783-4.827 11.783-10.781 0-5.955-5.275-10.782-11.782-10.782-.572 0-1.134.038-1.684.11v-.11c0-7.939-6.782-14.375-15.149-14.375-7.174 0-13.184 4.733-14.75 11.088C4.635 26.448.147 31.463.147 37.457c0 6.91 5.965 12.518 13.348 12.578h.112a14.198 14.198 0 0 0 .011 0z" id="b"/><mask id="f" x="0" y="0" width="53.864" height="35.938" fill="#fff"><use xlink:href="#b"/></mask></defs><g fill="none" fill-rule="evenodd"><path d="M-6-7h128v128H-6z"/><path fill="#CC9E1B" d="M16.547 17.063h81.284v81.284H16.547z"/><path fill="#F6A623" d="M0 57.476L57.476 0l57.477 57.476-57.477 57.477z"/><path d="M58.5 103c25.129 0 45.5-20.371 45.5-45.5S83.629 12 58.5 12 13 32.371 13 57.5 33.371 103 58.5 103z" fill="url(#c)"/><path d="M58.5 103c25.129 0 45.5-20.371 45.5-45.5S83.629 12 58.5 12 13 32.371 13 57.5 33.371 103 58.5 103z" fill="#FBDF6B"/><g transform="translate(24 40)" stroke="#979797" stroke-opacity=".32" stroke-width=".4"><use mask="url(#d)" fill="url(#e)" xlink:href="#a"/><use mask="url(#f)" fill="url(#g)" xlink:href="#b"/></g></g></svg>
